assets/wallet-icons/unilogin.svg

<svg fill="none" xmlns="http://www.w3.org/2000/svg" width="40" viewBox="0 0 38 33">
	<path fill-rule="evenodd" clip-rule="evenodd" d="M60.5108 17.1193V7.87679H62.682V17.1193C62.682 18.6187 62.1747 19.851 61.1602 20.8163C60.1659 21.7611 58.9484 22.2335 57.5077 22.2335C56.067 22.2335 54.8292 21.7611 53.8147 20.8163C52.8204 19.851 52.3131 18.6187 52.3131 17.1193V7.87679H54.5046V17.1193C54.5046 18.0025 54.7887 18.7419 55.3771 19.2965C55.9656 19.851 56.6758 20.1386 57.5077 20.1386C58.3397 20.1386 59.0296 19.851 59.618 19.2965C60.2065 18.7419 60.5108 18.0025 60.5108 17.1193ZM67.6043 16.872V22.0273H65.5143V12.4356H67.6043V13.8733C68.1116 12.8258 69.3697 12.2302 70.506 12.2302C72.7989 12.2302 74.1178 13.7295 74.1178 16.4407V22.0273H72.0278V16.6871C72.0278 15.1878 71.2568 14.3046 70.0393 14.3046C68.6595 14.3046 67.6043 15.1262 67.6043 16.872ZM79.0079 22.0274H76.9381V12.4357H79.0079V22.0274ZM77.9731 7.21899C78.7645 7.21899 79.3529 7.79376 79.3529 8.55327C79.3529 9.31279 78.7645 9.88755 77.9731 9.88755C77.2223 9.88755 76.573 9.29226 76.573 8.55327C76.573 7.81429 77.2223 7.21899 77.9731 7.21899ZM90.412 22.0281H82.6607V7.87679H84.8116V20.0359H90.412V22.0281ZM122.079 16.872V22.0273H119.989V12.4356H122.079V13.8733C122.586 12.8258 123.844 12.2302 124.981 12.2302C127.274 12.2302 128.592 13.7295 128.592 16.4407V22.0273H126.502V16.6871C126.502 15.1878 125.731 14.3046 124.514 14.3046C123.134 14.3046 122.079 15.1262 122.079 16.872Z" fill="#12083A"/>
	<path fill-rule="evenodd" clip-rule="evenodd" d="M96.43 20.1786C97.2417 20.1786 97.9316 19.9116 98.4794 19.3571C99.0273 18.8025 99.3114 18.0837 99.3114 17.2005C99.3114 15.4752 98.0533 14.3045 96.43 14.3045C95.6386 14.3045 94.9487 14.5715 94.4009 15.1055C93.853 15.6395 93.5689 16.3378 93.5689 17.2005C93.5689 18.0837 93.853 18.8025 94.4009 19.3571C94.9487 19.9116 95.6386 20.1786 96.43 20.1786ZM96.4298 12.23C97.8299 12.23 99.0068 12.6818 99.9605 13.6061C100.914 14.5303 101.401 15.7216 101.401 17.2004C101.401 18.6792 100.914 19.891 99.9402 20.8358C98.9865 21.7601 97.8096 22.2325 96.4298 22.2325C95.05 22.2325 93.8731 21.7601 92.9194 20.8358C91.9657 19.891 91.499 18.6792 91.499 17.2004C91.499 15.7216 91.9657 14.5303 92.9194 13.6061C93.8731 12.6818 95.05 12.23 96.4298 12.23Z" fill="#12083A"/>
	<path fill-rule="evenodd" clip-rule="evenodd" d="M117.412 8.55327C117.412 7.79376 116.823 7.21899 116.032 7.21899C115.281 7.21899 114.632 7.81429 114.632 8.55327C114.632 9.29226 115.281 9.88755 116.032 9.88755C116.823 9.88755 117.412 9.31279 117.412 8.55327ZM114.997 22.0275H117.067V12.4358H114.997V22.0275Z" fill="#12083A"/>
	<path fill-rule="evenodd" clip-rule="evenodd" d="M111.471 14.9307C111.531 14.9144 111.592 14.8962 111.652 14.8761C112.41 14.6232 112.868 14.1 113.459 13.4244C113.595 13.2693 113.738 13.1061 113.893 12.9363L112.449 11.6182C112.201 11.8898 112.011 12.1135 111.855 12.2971C111.501 12.7147 111.323 12.9251 111.034 13.0214C110.759 13.1131 110.432 13.129 109.906 12.9673C109.159 12.4521 108.286 12.1991 107.287 12.1991C106.045 12.1991 104.985 12.6018 104.127 13.4255C103.268 14.2493 102.848 15.311 102.848 16.6289C102.848 17.5631 103.059 18.3776 103.488 19.0727L102.94 19.999L102.936 20.0072C102.271 21.1831 102.279 22.5147 103.046 23.496C103.807 24.4696 105.117 24.8493 106.55 24.5763C108.04 24.2926 109.151 24.5195 109.754 24.9013C110.046 25.0858 110.197 25.2897 110.265 25.4766C110.33 25.6575 110.347 25.9067 110.221 26.2482C110.015 26.6488 109.425 27.13 108.176 27.2317C106.93 27.3333 105.218 27.0194 103.238 26.3166L102.459 27.9536C104.624 28.8929 106.667 29.3162 108.335 29.1803C110 29.0446 111.483 28.3136 112.054 26.7708C112.319 26.0566 112.346 25.4847 112.103 24.8127C111.863 24.1467 111.389 23.6224 110.8 23.2497C109.644 22.5172 107.979 22.314 106.184 22.6559C105.272 22.8297 104.784 22.5448 104.586 22.2924C104.396 22.0486 104.287 21.5955 104.634 20.9766L104.925 20.4839C105.616 20.9016 106.405 21.1137 107.287 21.1137C108.529 21.1137 109.589 20.6927 110.448 19.869C111.324 19.0269 111.763 17.9469 111.763 16.6289C111.763 16.0063 111.665 15.4409 111.471 14.9307ZM109.027 18.5371C108.565 19.0096 107.982 19.2371 107.297 19.2371C106.629 19.2371 106.047 19.0096 105.584 18.5371C105.121 18.0646 104.882 17.4521 104.882 16.6997C104.882 15.9647 105.121 15.3698 105.584 14.9148C106.047 14.4598 106.629 14.2323 107.297 14.2323C108.668 14.2323 109.73 15.2298 109.73 16.6997C109.73 17.4521 109.49 18.0646 109.027 18.5371Z" fill="#12083A"/>
	<path fill-rule="evenodd" clip-rule="evenodd" d="M0 0H4.41438C9.35059 0 13.3522 3.95072 13.3522 8.82418V15.8177C13.3522 18.1572 15.2731 20.0537 17.6427 20.0537C20.0123 20.0537 21.9332 18.1572 21.9332 15.8177V8.82418C21.9332 3.95072 25.9348 0 30.871 0H35.36V15.5447C35.36 25.185 27.4444 33 17.68 33C7.91561 33 0 25.185 0 15.5447V0Z" fill="url(#paint0_linear)"/>
	<path fill-rule="evenodd" clip-rule="evenodd" d="M0 0H4.41438C9.35059 0 13.3522 3.95072 13.3522 8.82418V15.8177C13.3522 18.1572 15.2731 20.0537 17.6427 20.0537C20.0123 20.0537 21.9332 18.1572 21.9332 15.8177V8.82418C21.9332 3.95072 25.9348 0 30.871 0H35.36V15.5447C35.36 25.185 27.4444 33 17.68 33C7.91561 33 0 25.185 0 15.5447V0Z" fill="url(#paint1_linear)"/>
	<path fill-rule="evenodd" clip-rule="evenodd" d="M0 0H4.41438C9.35059 0 13.3522 3.95072 13.3522 8.82418V15.8177C13.3522 18.1572 15.2731 20.0537 17.6427 20.0537C20.0123 20.0537 21.9332 18.1572 21.9332 15.8177V8.82418C21.9332 3.95072 25.9348 0 30.871 0H35.36V15.5447C35.36 25.185 27.4444 33 17.68 33C7.91561 33 0 25.185 0 15.5447V0Z" fill="url(#paint2_linear)"/>
	<path fill-rule="evenodd" clip-rule="evenodd" d="M0 0H4.41438C9.35059 0 13.3522 3.95072 13.3522 8.82418V15.8177C13.3522 18.1572 15.2731 20.0537 17.6427 20.0537C20.0123 20.0537 21.9332 18.1572 21.9332 15.8177V8.82418C21.9332 3.95072 25.9348 0 30.871 0H35.36V15.5447C35.36 25.185 27.4444 33 17.68 33C7.91561 33 0 25.185 0 15.5447V0Z" fill="url(#paint3_linear)"/>
	<path opacity="0.973865" fill-rule="evenodd" clip-rule="evenodd" d="M18.4081 20.0421L20.5261 21.0203L24.6422 20.6489L26.5122 20.0421L28.6999 19.2688L31.1574 17.2003L33.1717 16.1934L34.1053 13.4891L34.4379 11.2345L34.941 9.61423V6.93811L35.2474 4.47731V2.51147C34.6562 6.52673 34.3095 7.49061 33.746 8.63864C32.9008 10.3607 32.9008 10.396 31.7599 11.9479C30.6191 13.4998 29.9889 14.2432 28.2374 15.646C26.4859 17.0487 25.7999 17.4505 23.8462 18.2507C22.5438 18.7842 21.1991 19.1924 19.8123 19.4754L18.4081 20.0421Z" fill="url(#paint4_linear)"/>
	<path fill-rule="evenodd" clip-rule="evenodd" d="M0 0H4.41438C9.35059 0 13.3522 3.95072 13.3522 8.82418V15.8177C13.3522 18.1572 15.2731 20.0537 17.6427 20.0537C20.0123 20.0537 21.9332 18.1572 21.9332 15.8177V8.82418C21.9332 3.95072 25.9348 0 30.871 0H35.36V15.5447C35.36 25.185 27.4444 33 17.68 33C7.91561 33 0 25.185 0 15.5447V0Z" fill="url(#paint5_linear)"/>
	<path fill-rule="evenodd" clip-rule="evenodd" d="M0 0H4.41438C9.35059 0 13.3522 3.95072 13.3522 8.82418V15.7809C13.3522 18.1407 15.2898 20.0537 17.68 20.0537C20.4898 20.0537 23.2606 19.4044 25.7707 18.1579L25.9658 18.061C28.5968 16.7544 30.8439 14.8029 32.4921 12.3933L32.5075 12.3708C34.1604 9.95431 35.0942 7.12876 35.2028 4.2148L35.36 0V15.5447C35.36 25.185 27.4444 33 17.68 33C7.91561 33 0 25.185 0 15.5447V0Z" fill="url(#paint6_linear)"/>
	<path fill-rule="evenodd" clip-rule="evenodd" d="M0 0H4.41438C9.35059 0 13.3522 3.95072 13.3522 8.82418V15.7809C13.3522 18.1407 15.2898 20.0537 17.68 20.0537C20.4898 20.0537 23.2606 19.4044 25.7707 18.1579L25.9658 18.061C28.5968 16.7544 30.8439 14.8029 32.4921 12.3933L32.5075 12.3708C34.1604 9.95431 35.0942 7.12876 35.2028 4.2148L35.36 0V15.5447C35.36 25.185 27.4444 33 17.68 33C7.91561 33 0 25.185 0 15.5447V0Z" fill="url(#paint7_linear)"/>
	<mask id="mask0" mask-type="alpha" maskUnits="userSpaceOnUse" x="0" y="0" width="36" height="33">
	<path fill-rule="evenodd" clip-rule="evenodd" d="M0 0H4.41438C9.35059 0 13.3522 3.95072 13.3522 8.82418V15.7809C13.3522 18.1407 15.2898 20.0537 17.68 20.0537C20.4898 20.0537 23.2606 19.4044 25.7707 18.1579L25.9658 18.061C28.5968 16.7544 30.8439 14.8029 32.4921 12.3933L32.5075 12.3708C34.1604 9.95431 35.0942 7.12876 35.2028 4.2148L35.36 0V15.5447C35.36 25.185 27.4444 33 17.68 33C7.91561 33 0 25.185 0 15.5447V0Z" fill="url(#paint8_linear)"/>
	</mask>
	<g mask="url(#mask0)">
	<path opacity="0.5" fill-rule="evenodd" clip-rule="evenodd" d="M13.3353 13.4179L12.9774 15.9216L12.487 20.1442L11.1426 21.6316L10.8473 23.9072L11.5984 27.008L11.5926 29.2371L13.6093 31.286L15.4931 32.6023L16.7269 33.7804L19.1421 34.9953L21.2238 36.382L22.9979 37.2745L21.5602 36.2802C20.7138 35.6948 19.9293 35.0267 19.2186 34.286L18.7646 33.8128C18.3584 33.3893 17.8758 33.0443 17.3416 32.7953C16.823 32.5537 16.4196 32.1228 16.2162 31.5934L16.0131 31.0649C15.6693 30.1699 15.4931 29.2206 15.4931 28.2633L15.4931 19.4755L14.731 18.8772L14.0364 18.0917L13.8629 17.7928L13.8214 17.7083C13.7616 17.5864 13.7059 17.4626 13.6543 17.3372C13.6027 17.2117 13.5579 17.0837 13.5199 16.9537L13.5143 16.9346C13.4726 16.7919 13.4401 16.6467 13.4168 16.5L13.3969 16.374L13.3353 15.8616L13.3353 13.4179Z" fill="url(#paint9_linear)"/>
	</g>
	<path fill-rule="evenodd" clip-rule="evenodd" d="M0 0H4.41438C9.35059 0 13.3522 3.95072 13.3522 8.82418V15.7809C13.3522 18.1407 15.2898 20.0537 17.68 20.0537C20.4898 20.0537 23.2606 19.4044 25.7707 18.1579L25.9658 18.061C28.5968 16.7544 30.8439 14.8029 32.4921 12.3933L32.5075 12.3708C34.1604 9.95431 35.0942 7.12876 35.2028 4.2148L35.36 0V15.5447C35.36 25.185 27.4444 33 17.68 33C7.91561 33 0 25.185 0 15.5447V0Z" fill="url(#paint10_linear)"/>
	<path fill-rule="evenodd" clip-rule="evenodd" d="M0 0H4.41438C9.3506 0 13.3522 3.95072 13.3522 8.82418V10.9597V28.7272C13.3522 31.087 15.2898 33 17.68 33C7.91562 33 0 25.185 0 15.5447V0Z" fill="url(#paint11_linear)"/>
	<path fill-rule="evenodd" clip-rule="evenodd" d="M0 0H4.41438C9.3506 0 13.3522 3.95072 13.3522 8.82418V10.9597V28.7272C13.3522 31.087 15.2898 33 17.68 33C7.91562 33 0 25.185 0 15.5447V0Z" fill="url(#paint12_linear)"/>
	<defs>
	<linearGradient id="paint0_linear" x1="17.68" y1="0" x2="17.68" y2="33" gradientUnits="userSpaceOnUse">
	<stop stop-color="#DEEDFF"/>
	<stop offset="1" stop-color="#B2D4FD"/>
	</linearGradient>
	<linearGradient id="paint1_linear" x1="32.0043" y1="1.75656" x2="30.9757" y2="20.7371" gradientUnits="userSpaceOnUse">
	<stop stop-color="#00D6D9"/>
	<stop offset="1" stop-color="#455CDA"/>
	</linearGradient>
	<linearGradient id="paint2_linear" x1="22.8708" y1="1.75656" x2="29.9573" y2="11.9966" gradientUnits="userSpaceOnUse">
	<stop stop-color="#00D6D9"/>
	<stop offset="1" stop-color="#04CFD9" stop-opacity="0"/>
	</linearGradient>
	<linearGradient id="paint3_linear" x1="22.931" y1="16.5" x2="25.2362" y2="19.5271" gradientUnits="userSpaceOnUse">
	<stop stop-color="#3F66DA" stop-opacity="0"/>
	<stop offset="1" stop-color="#2E2EAE"/>
	</linearGradient>
	<linearGradient id="paint4_linear" x1="24.8937" y1="13.3057" x2="27.177" y2="19.1536" gradientUnits="userSpaceOnUse">
	<stop stop-color="#2D41B3" stop-opacity="0"/>
	<stop offset="1" stop-color="#141E62"/>
	</linearGradient>
	<linearGradient id="paint5_linear" x1="15.3553" y1="7.8919" x2="28.5471" y2="23.0918" gradientUnits="userSpaceOnUse">
	<stop stop-color="#3F66DA" stop-opacity="0"/>
	<stop offset="1" stop-color="#2436C1"/>
	</linearGradient>
	<linearGradient id="paint6_linear" x1="43.3468" y1="40.5914" x2="31.3119" y2="9.34286" gradientUnits="userSpaceOnUse">
	<stop stop-color="#706AE1"/>
	<stop offset="1" stop-color="#4352ED"/>
	</linearGradient>
	<linearGradient id="paint7_linear" x1="67.4184" y1="1.75656" x2="37.8858" y2="38.7384" gradientUnits="userSpaceOnUse">
	<stop stop-color="#00D6D9"/>
	<stop offset="1" stop-color="#0FC4DD" stop-opacity="0"/>
	</linearGradient>
	<linearGradient id="paint8_linear" x1="24.7435" y1="23.2722" x2="14.1909" y2="30.3859" gradientUnits="userSpaceOnUse">
	<stop stop-color="#3F4DDA" stop-opacity="0"/>
	<stop offset="1" stop-color="#2736A4"/>
	</linearGradient>
	<linearGradient id="paint9_linear" x1="19.1948" y1="23.354" x2="13.0623" y2="23.3828" gradientUnits="userSpaceOnUse">
	<stop stop-color="#2D41B3" stop-opacity="0"/>
	<stop offset="1" stop-color="#141E62"/>
	</linearGradient>
	<linearGradient id="paint10_linear" x1="24.7435" y1="23.2722" x2="14.1909" y2="30.3859" gradientUnits="userSpaceOnUse">
	<stop stop-color="#3F4DDA" stop-opacity="0"/>
	<stop offset="1" stop-color="#2736A4"/>
	</linearGradient>
	<linearGradient id="paint11_linear" x1="6.79858" y1="1.44448e-07" x2="17.0045" y2="23.042" gradientUnits="userSpaceOnUse">
	<stop stop-color="#00D6D9"/>
	<stop offset="1" stop-color="#5272EE"/>
	</linearGradient>
	<linearGradient id="paint12_linear" x1="4.91662" y1="8.00639" x2="12.8211" y2="20.2053" gradientUnits="userSpaceOnUse">
	<stop stop-color="#00D6D9"/>
	<stop offset="1" stop-color="#0FC4DD" stop-opacity="0"/>
	</linearGradient>
	</defs>
</svg>

<svg fill="none" xmlns="http://www.w3.org/2000/svg" width="40" viewBox="0 0 38 33">
    <path fill-rule="evenodd" clip-rule="evenodd" d="M60.51 17.12V7.876h2.172v9.242c0 1.5-.507 2.732-1.522 3.697-.994.945-2.212 1.418-3.652 1.418-1.441 0-2.679-.473-3.693-1.418-.995-.965-1.502-2.197-1.502-3.697V7.877h2.192v9.242c0 .884.284 1.623.872 2.178a3.004 3.004 0 002.13.842c.833 0 1.523-.288 2.111-.842.588-.555.893-1.294.893-2.178zm7.094-.248v5.155h-2.09v-9.591h2.09v1.437c.508-1.047 1.766-1.643 2.902-1.643 2.293 0 3.612 1.5 3.612 4.21v5.587h-2.09v-5.34c0-1.5-.771-2.382-1.989-2.382-1.38 0-2.435.821-2.435 2.567zm11.404 5.155h-2.07v-9.591h2.07v9.591zM77.973 7.22c.791 0 1.38.575 1.38 1.334 0 .76-.588 1.335-1.38 1.335-.75 0-1.4-.596-1.4-1.335s.65-1.334 1.4-1.334zm12.439 14.81h-7.751V7.876h2.15v12.159h5.601v1.992zm31.667-5.157v5.155h-2.09v-9.591h2.09v1.437c.507-1.047 1.765-1.643 2.902-1.643 2.293 0 3.611 1.5 3.611 4.21v5.587h-2.09v-5.34c0-1.5-.771-2.382-1.988-2.382-1.38 0-2.435.821-2.435 2.567zM96.43 20.179c.812 0 1.502-.267 2.05-.822.547-.555.831-1.273.831-2.156 0-1.726-1.258-2.896-2.881-2.896-.791 0-1.481.267-2.03.8-.547.534-.831 1.233-.831 2.096 0 .883.284 1.601.832 2.156.548.555 1.238.822 2.029.822zm0-7.949c1.4 0 2.577.452 3.53 1.376.954.924 1.441 2.116 1.441 3.594 0 1.48-.487 2.691-1.46 3.636-.954.924-2.131 1.397-3.511 1.397-1.38 0-2.557-.473-3.51-1.397-.954-.945-1.421-2.157-1.421-3.636 0-1.478.467-2.67 1.42-3.594.954-.924 2.131-1.376 3.51-1.376zm20.982-3.677c0-.76-.589-1.334-1.38-1.334-.751 0-1.4.595-1.4 1.334 0 .74.649 1.335 1.4 1.335.791 0 1.38-.575 1.38-1.335zm-2.415 13.474h2.07v-9.591h-2.07v9.591zm-3.526-7.097c.06-.016.121-.034.181-.054.758-.253 1.216-.776 1.807-1.452.136-.155.279-.318.434-.488l-1.444-1.318c-.248.272-.438.495-.594.68-.354.417-.532.627-.821.723-.275.092-.602.108-1.128-.054-.747-.515-1.62-.768-2.619-.768-1.242 0-2.302.403-3.16 1.226-.859.824-1.279 1.886-1.279 3.204 0 .934.211 1.749.64 2.444l-.548.926-.004.008c-.665 1.176-.657 2.508.11 3.489.761.974 2.071 1.353 3.504 1.08 1.49-.283 2.601-.056 3.204.325.292.185.443.389.511.576.065.18.082.43-.044.771-.206.4-.796.882-2.045.984-1.246.101-2.958-.213-4.938-.915l-.779 1.637c2.165.939 4.208 1.362 5.876 1.226 1.665-.135 3.148-.866 3.719-2.41.265-.713.292-1.285.049-1.957-.24-.666-.714-1.19-1.303-1.563-1.156-.733-2.821-.936-4.616-.594-.912.174-1.4-.111-1.598-.364-.19-.243-.299-.697.048-1.315l.291-.493c.691.418 1.48.63 2.362.63 1.242 0 2.302-.421 3.161-1.245.876-.842 1.315-1.922 1.315-3.24 0-.623-.098-1.188-.292-1.698zm-2.444 3.607c-.462.473-1.045.7-1.73.7-.668 0-1.25-.227-1.713-.7-.463-.472-.702-1.085-.702-1.837 0-.735.239-1.33.702-1.785.463-.455 1.045-.683 1.713-.683 1.371 0 2.433.998 2.433 2.468 0 .752-.24 1.365-.703 1.837z" fill="#12083A"/>
    <path fill-rule="evenodd" clip-rule="evenodd" d="M0 0h4.414c4.937 0 8.938 3.95 8.938 8.824v6.994c0 2.34 1.921 4.236 4.29 4.236 2.37 0 4.291-1.897 4.291-4.236V8.824C21.933 3.951 25.935 0 30.871 0h4.489v15.545C35.36 25.185 27.444 33 17.68 33S0 25.185 0 15.545V0z" fill="url(#paint0_linear)"/>
    <path fill-rule="evenodd" clip-rule="evenodd" d="M0 0h4.414c4.937 0 8.938 3.95 8.938 8.824v6.994c0 2.34 1.921 4.236 4.29 4.236 2.37 0 4.291-1.897 4.291-4.236V8.824C21.933 3.951 25.935 0 30.871 0h4.489v15.545C35.36 25.185 27.444 33 17.68 33S0 25.185 0 15.545V0z" fill="url(#paint1_linear)"/>
    <path fill-rule="evenodd" clip-rule="evenodd" d="M0 0h4.414c4.937 0 8.938 3.95 8.938 8.824v6.994c0 2.34 1.921 4.236 4.29 4.236 2.37 0 4.291-1.897 4.291-4.236V8.824C21.933 3.951 25.935 0 30.871 0h4.489v15.545C35.36 25.185 27.444 33 17.68 33S0 25.185 0 15.545V0z" fill="url(#paint2_linear)"/>
    <path fill-rule="evenodd" clip-rule="evenodd" d="M0 0h4.414c4.937 0 8.938 3.95 8.938 8.824v6.994c0 2.34 1.921 4.236 4.29 4.236 2.37 0 4.291-1.897 4.291-4.236V8.824C21.933 3.951 25.935 0 30.871 0h4.489v15.545C35.36 25.185 27.444 33 17.68 33S0 25.185 0 15.545V0z" fill="url(#paint3_linear)"/>
    <path opacity=".974" fill-rule="evenodd" clip-rule="evenodd" d="M18.408 20.042l2.118.978 4.116-.371 1.87-.607 2.188-.773 2.457-2.069 2.015-1.007.933-2.704.333-2.255.503-1.62V6.938l.306-2.46V2.51c-.59 4.016-.938 4.98-1.501 6.128-.845 1.722-.845 1.757-1.986 3.309-1.14 1.552-1.771 2.295-3.523 3.698-1.751 1.403-2.437 1.805-4.39 2.605a22.47 22.47 0 01-4.035 1.224l-1.404.567z" fill="url(#paint4_linear)"/>
    <path fill-rule="evenodd" clip-rule="evenodd" d="M0 0h4.414c4.937 0 8.938 3.95 8.938 8.824v6.994c0 2.34 1.921 4.236 4.29 4.236 2.37 0 4.291-1.897 4.291-4.236V8.824C21.933 3.951 25.935 0 30.871 0h4.489v15.545C35.36 25.185 27.444 33 17.68 33S0 25.185 0 15.545V0z" fill="url(#paint5_linear)"/>
    <path fill-rule="evenodd" clip-rule="evenodd" d="M0 0h4.414c4.937 0 8.938 3.95 8.938 8.824v6.957c0 2.36 1.938 4.273 4.328 4.273 2.81 0 5.58-.65 8.09-1.896l.196-.097a17.137 17.137 0 006.526-5.668l.016-.022a15.464 15.464 0 002.695-8.156L35.36 0v15.545C35.36 25.185 27.444 33 17.68 33S0 25.185 0 15.545V0z" fill="url(#paint6_linear)"/>
    <path fill-rule="evenodd" clip-rule="evenodd" d="M0 0h4.414c4.937 0 8.938 3.95 8.938 8.824v6.957c0 2.36 1.938 4.273 4.328 4.273 2.81 0 5.58-.65 8.09-1.896l.196-.097a17.137 17.137 0 006.526-5.668l.016-.022a15.464 15.464 0 002.695-8.156L35.36 0v15.545C35.36 25.185 27.444 33 17.68 33S0 25.185 0 15.545V0z" fill="url(#paint7_linear)"/>
    <mask id="a" maskUnits="userSpaceOnUse" x="0" y="0" width="36" height="33">
        <path fill-rule="evenodd" clip-rule="evenodd" d="M0 0h4.414c4.937 0 8.938 3.95 8.938 8.824v6.957c0 2.36 1.938 4.273 4.328 4.273 2.81 0 5.58-.65 8.09-1.896l.196-.097a17.137 17.137 0 006.526-5.668l.016-.022a15.464 15.464 0 002.695-8.156L35.36 0v15.545C35.36 25.185 27.444 33 17.68 33S0 25.185 0 15.545V0z" fill="url(#paint8_linear)"/>
    </mask>
    <g mask="url(#a)">
        <path opacity=".5" fill-rule="evenodd" clip-rule="evenodd" d="M13.335 13.418l-.358 2.504-.49 4.222-1.344 1.488-.296 2.275.751 3.101-.005 2.23 2.016 2.048 1.884 1.316 1.234 1.178 2.415 1.215 2.082 1.387 1.774.893-1.438-.995a15.33 15.33 0 01-2.341-1.994l-.454-.473a4.755 4.755 0 00-1.423-1.018 2.197 2.197 0 01-1.126-1.202l-.203-.528a7.812 7.812 0 01-.52-2.802v-8.788l-.762-.598-.695-.785-.173-.3-.042-.084a6.196 6.196 0 01-.167-.37 3.846 3.846 0 01-.134-.384l-.006-.02a3.515 3.515 0 01-.097-.434l-.02-.126-.062-.512v-2.444z" fill="url(#paint9_linear)"/>
    </g>
    <path fill-rule="evenodd" clip-rule="evenodd" d="M0 0h4.414c4.937 0 8.938 3.95 8.938 8.824v6.957c0 2.36 1.938 4.273 4.328 4.273 2.81 0 5.58-.65 8.09-1.896l.196-.097a17.137 17.137 0 006.526-5.668l.016-.022a15.464 15.464 0 002.695-8.156L35.36 0v15.545C35.36 25.185 27.444 33 17.68 33S0 25.185 0 15.545V0z" fill="url(#paint10_linear)"/>
    <path fill-rule="evenodd" clip-rule="evenodd" d="M0 0h4.414c4.937 0 8.938 3.95 8.938 8.824v19.903c0 2.36 1.938 4.273 4.328 4.273C7.916 33 0 25.185 0 15.545V0z" fill="url(#paint11_linear)"/>
    <path fill-rule="evenodd" clip-rule="evenodd" d="M0 0h4.414c4.937 0 8.938 3.95 8.938 8.824v19.903c0 2.36 1.938 4.273 4.328 4.273C7.916 33 0 25.185 0 15.545V0z" fill="url(#paint12_linear)"/>
    <defs>
        <linearGradient id="paint0_linear" x1="17.68" y1="0" x2="17.68" y2="33" gradientUnits="userSpaceOnUse">
            <stop stop-color="#DEEDFF"/>
            <stop offset="1" stop-color="#B2D4FD"/>
        </linearGradient>
        <linearGradient id="paint1_linear" x1="32.004" y1="1.757" x2="30.976" y2="20.737" gradientUnits="userSpaceOnUse">
            <stop stop-color="#00D6D9"/>
            <stop offset="1" stop-color="#455CDA"/>
        </linearGradient>
        <linearGradient id="paint2_linear" x1="22.871" y1="1.757" x2="29.957" y2="11.997" gradientUnits="userSpaceOnUse">
            <stop stop-color="#00D6D9"/>
            <stop offset="1" stop-color="#04CFD9" stop-opacity="0"/>
        </linearGradient>
        <linearGradient id="paint3_linear" x1="22.931" y1="16.5" x2="25.236" y2="19.527" gradientUnits="userSpaceOnUse">
            <stop stop-color="#3F66DA" stop-opacity="0"/>
            <stop offset="1" stop-color="#2E2EAE"/>
        </linearGradient>
        <linearGradient id="paint4_linear" x1="24.894" y1="13.306" x2="27.177" y2="19.154" gradientUnits="userSpaceOnUse">
            <stop stop-color="#2D41B3" stop-opacity="0"/>
            <stop offset="1" stop-color="#141E62"/>
        </linearGradient>
        <linearGradient id="paint5_linear" x1="15.355" y1="7.892" x2="28.547" y2="23.092" gradientUnits="userSpaceOnUse">
            <stop stop-color="#3F66DA" stop-opacity="0"/>
            <stop offset="1" stop-color="#2436C1"/>
        </linearGradient>
        <linearGradient id="paint6_linear" x1="43.347" y1="40.591" x2="31.312" y2="9.343" gradientUnits="userSpaceOnUse">
            <stop stop-color="#706AE1"/>
            <stop offset="1" stop-color="#4352ED"/>
        </linearGradient>
        <linearGradient id="paint7_linear" x1="67.418" y1="1.757" x2="37.886" y2="38.738" gradientUnits="userSpaceOnUse">
            <stop stop-color="#00D6D9"/>
            <stop offset="1" stop-color="#0FC4DD" stop-opacity="0"/>
        </linearGradient>
        <linearGradient id="paint8_linear" x1="24.744" y1="23.272" x2="14.191" y2="30.386" gradientUnits="userSpaceOnUse">
            <stop stop-color="#3F4DDA" stop-opacity="0"/>
            <stop offset="1" stop-color="#2736A4"/>
        </linearGradient>
        <linearGradient id="paint9_linear" x1="19.195" y1="23.354" x2="13.062" y2="23.383" gradientUnits="userSpaceOnUse">
            <stop stop-color="#2D41B3" stop-opacity="0"/>
            <stop offset="1" stop-color="#141E62"/>
        </linearGradient>
        <linearGradient id="paint10_linear" x1="24.744" y1="23.272" x2="14.191" y2="30.386" gradientUnits="userSpaceOnUse">
            <stop stop-color="#3F4DDA" stop-opacity="0"/>
            <stop offset="1" stop-color="#2736A4"/>
        </linearGradient>
        <linearGradient id="paint11_linear" x1="6.799" y1="0" x2="17.005" y2="23.042" gradientUnits="userSpaceOnUse">
            <stop stop-color="#00D6D9"/>
            <stop offset="1" stop-color="#5272EE"/>
        </linearGradient>
        <linearGradient id="paint12_linear" x1="4.917" y1="8.006" x2="12.821" y2="20.205" gradientUnits="userSpaceOnUse">
            <stop stop-color="#00D6D9"/>
            <stop offset="1" stop-color="#0FC4DD" stop-opacity="0"/>
        </linearGradient>
    </defs>
</svg>
